_includes/icons/ios-upload.svg

<svg fill="#666" height="50" viewBox="0 0 50 50" width="50" xmlns="http://www.w3.org/2000/svg"><path d="m25 .59375-.71875.6875-8 8c-.398437.398438-.398437 1.039063 0 1.4375.398438.398438 1.039063.398438 1.4375 0l6.28125-6.28125v27.5625c-.003906.359375.183594.695313.496094.878906.3125.179688.695312.179688 1.007812 0 .3125-.183593.5-.519531.496094-.878906v-27.5625l6.28125 6.28125c.398438.398438 1.039063.398438 1.4375 0 .398438-.398437.398438-1.039062 0-1.4375l-8-8zm-18 15.40625v34h36v-34h-10c-.359375-.003906-.695312.183594-.878906.496094-.179688.3125-.179688.695312 0 1.007812.183594.3125.519531.5.878906.496094h8v30h-32v-30h8c.359375.003906.695313-.183594.878906-.496094.179688-.3125.179688-.695312 0-1.007812-.183593-.3125-.519531-.5-.878906-.496094z"/></svg>

<svg xmlns="http://www.w3.org/2000/svg" viewBox="0 0 50 50" width="50" height="50" fill="#666"><path d="M 25 0.59375 L 24.28125 1.28125 L 16.28125 9.28125 C 15.882813 9.679688 15.882813 10.320313 16.28125 10.71875 C 16.679688 11.117188 17.320313 11.117188 17.71875 10.71875 L 24 4.4375 L 24 32 C 23.996094 32.359375 24.183594 32.695313 24.496094 32.878906 C 24.808594 33.058594 25.191406 33.058594 25.503906 32.878906 C 25.816406 32.695313 26.003906 32.359375 26 32 L 26 4.4375 L 32.28125 10.71875 C 32.679688 11.117188 33.320313 11.117188 33.71875 10.71875 C 34.117188 10.320313 34.117188 9.679688 33.71875 9.28125 L 25.71875 1.28125 Z M 7 16 L 7 50 L 43 50 L 43 16 L 33 16 C 32.640625 15.996094 32.304688 16.183594 32.121094 16.496094 C 31.941406 16.808594 31.941406 17.191406 32.121094 17.503906 C 32.304688 17.816406 32.640625 18.003906 33 18 L 41 18 L 41 48 L 9 48 L 9 18 L 17 18 C 17.359375 18.003906 17.695313 17.816406 17.878906 17.503906 C 18.058594 17.191406 18.058594 16.808594 17.878906 16.496094 C 17.695313 16.183594 17.359375 15.996094 17 16 Z"/></svg>
